X:37
T:Dusty Windowsill
M:6/8
L:1/8
R:jig
K:G
A2B cAB|e2d cBA|G3 EGG|DGG EFG|A2B cAB|e2d cde|~g3 ege|dBG A3:|
|:~a3 age|dBd g3|~g3 gfe|dBA G3|EGG DGG|EFG ABc|Bed BAG|BAG A3:|
|:~A3 gAf|~A3 ged|~G3 eGd|~g3 edB|~A3 gAf|~A3 efg|age dBG|BAG A3:|
